X: 16
T:Tiroulette
M:4/4
L:1/8
C:Paris
S:French Creek
K:D
EF|G2FGB2AG|FG Ad D2EF|G2FGB2AG|B2A4EF|G2FGB2AG|!
FG Ad D2EF|G2FG BA GF|E3F/2E/2D2FG||A2FA dc de|gf edA4|GF GB FE FA|!
EF GA B=c/2B/ A2|A2FA dc de|gf edA4|GF GB FE FA|E3F/2E/2D2||
